public/assets/svgs/menu.svg

<svg enable-background="new 0 0 512 512" viewBox="0 0 512 512" xmlns="http://www.w3.org/2000/svg"><path d="m491.318 235.318h-470.636c-11.422 0-20.682 9.259-20.682 20.682s9.26 20.682 20.682 20.682h470.636c11.423 0 20.682-9.259 20.682-20.682 0-11.422-9.259-20.682-20.682-20.682z"/><path d="m491.318 78.439h-470.636c-11.422 0-20.682 9.26-20.682 20.682s9.26 20.682 20.682 20.682h470.636c11.423 0 20.682-9.26 20.682-20.682s-9.259-20.682-20.682-20.682z"/><path d="m491.318 392.197h-470.636c-11.422 0-20.682 9.259-20.682 20.682s9.26 20.682 20.682 20.682h470.636c11.423 0 20.682-9.259 20.682-20.682s-9.259-20.682-20.682-20.682z"/></svg>

<?xml version="1.0" encoding="iso-8859-1"?>
<!-- Generator: Adobe Illustrator 19.0.0, SVG Export Plug-In . SVG Version: 6.00 Build 0)  -->
<svg version="1.1" id="Layer_1" xmlns="http://www.w3.org/2000/svg" xmlns:xlink="http://www.w3.org/1999/xlink" x="0px" y="0px"
     viewBox="0 0 512 512" style="enable-background:new 0 0 512 512;" xml:space="preserve">
	<g>
		<path d="M491.318,235.318H20.682C9.26,235.318,0,244.577,0,256s9.26,20.682,20.682,20.682h470.636
			c11.423,0,20.682-9.259,20.682-20.682C512,244.578,502.741,235.318,491.318,235.318z"/>
	</g>
  <g>
		<path d="M491.318,78.439H20.682C9.26,78.439,0,87.699,0,99.121c0,11.422,9.26,20.682,20.682,20.682h470.636
			c11.423,0,20.682-9.26,20.682-20.682C512,87.699,502.741,78.439,491.318,78.439z"/>
	</g>
  <g>
		<path d="M491.318,392.197H20.682C9.26,392.197,0,401.456,0,412.879s9.26,20.682,20.682,20.682h470.636
			c11.423,0,20.682-9.259,20.682-20.682S502.741,392.197,491.318,392.197z"/>
	</g>
</svg>
